X: 24259
T: Lord Seaforth
R: strathspey
M: 4/4
K: Amajor
c>B|AE EF AB c2|dB c/B/A F2FE/F/|AE EF AB c>d|ec Bc/B/ A2:|
a2|f/g/a ea ca e>c|dB c/B/A F2 a2|f/g/a ea ca e>c|dB ec A2a2|
f/g/a ea ca e>c|dB c/B/A F2 FE/F/|AE EF AB c>d|ec Bc/B/ A3||

